icons/sanity/sanity-original.svg

<svg  xmlns="http://www.w3.org/2000/svg" viewBox="0 0 128 128">
    <rect fill="#F03E2F" height="128" width="128"></rect>
    <path fill="#FFFFFF" d="M39.4229 33.1629C39.4229 44.1614 46.3362 50.7055 60.1767 54.1563L74.8429 57.4971C87.9417 60.453 95.9185 67.7945 95.9185 79.7554C96.0204 84.9662 94.296 90.053 91.0345 94.1634C91.0345 82.23 84.751 75.7822 69.595 71.9052L55.1947 68.6881C43.6633 66.1035 34.7628 60.068 34.7628 47.076C34.7021 42.0589 36.3415 37.1644 39.4229 33.1629Z"></path>
    <path fill="#F9B1AB" d="M82.0221 76.827C88.2776 80.759 91.0205 86.2583 91.0205 94.1497C85.8426 100.666 76.7462 104.323 66.0545 104.323C48.0576 104.323 35.4626 95.6207 32.6637 80.4978H49.9468C52.172 87.4406 58.0636 90.6577 65.9285 90.6577C75.5287 90.6577 81.9102 85.6258 82.0361 76.7995"></path>
    <path fill="#F9B1AB" d="M48.4074 49.4682C45.5509 47.8004 43.2073 45.404 41.6255 42.5332C40.0437 39.6624 39.2825 36.4244 39.423 33.1629C44.419 26.7013 53.1095 22.7556 63.7033 22.7556C82.0361 22.7556 92.6439 32.2693 95.2608 45.66H78.6354C76.8021 40.3807 72.212 36.27 63.8433 36.27C54.9008 36.27 48.7992 41.3843 48.4494 49.4682"></path>
</svg>

<svg xmlns="http://www.w3.org/2000/svg" viewBox="0 0 128 128"><path fill="#F03E2F" d="M0 0h128v128H0z"/><path fill="#FFF" d="M39.423 33.163c0 10.998 6.913 17.543 20.754 20.993l14.666 3.341c13.099 2.956 21.075 10.297 21.075 22.258a22.465 22.465 0 01-4.884 14.408c0-11.933-6.283-18.38-21.439-22.258l-14.4-3.217c-11.532-2.585-20.432-8.62-20.432-21.612a22.353 22.353 0 014.66-13.913z"/><path fill="#F9B1AB" d="M82.022 76.827c6.256 3.932 8.998 9.431 8.998 17.323-5.177 6.516-14.274 10.173-24.965 10.173-17.997 0-30.592-8.702-33.391-23.825h17.283c2.225 6.943 8.117 10.16 15.981 10.16 9.6 0 15.982-5.032 16.108-13.859M48.407 49.468a18.225 18.225 0 01-6.781-6.935 17.82 17.82 0 01-2.203-9.37c4.996-6.462 13.686-10.407 24.28-10.407 18.333 0 28.94 9.513 31.558 22.904H78.635c-1.833-5.28-6.423-9.39-14.792-9.39-8.942 0-15.044 5.114-15.394 13.198"/></svg>
